X: 10152
T: Dingle David
R: jig
M: 6/8
K: Amajor
A2 c BAF|AFE FEC|A,CE FEC|AFE eBc|
A2 c BAF|AFE FEC|A,CE ABc|ecB A2 G:|
Aca ~f3|ecA BcB|AEE cEE|~B3 BcB|
Aca ~f3|ecA BcB|AEE ABc|ecB A2 G:|

